X:1
T:Meet Me At The Equinox
C:Death Cab For Cutie
Z:All Rights Reserved
L:1/8
Q:1/4=120
M:4/4
K:C
V:1 treble nm="Voice"
%%MIDI program 0
V:1
"Gm7" _B2 B2 B2 B2 | _B2 GG- G4 | z2 FF- FFzG- | G4 z2 c_B |"Bb9" cczc- c2 _Bc | dG-GG- G2 GG | %6
w: Meet me on the|E- quin- ox _|Meet me _ half- way|_ When the|sun is perched _ at its|high- est _ peak _ in the|
"Gm9" FF- F2 F2 FG- | G4 z4 |"Gm7" _B2 BB z B-B-B | z GGG- G4 | z2 FD- DF z/ G3/2 | G4 z2 G2 | %12
w: mid- dle _ of the day|_|Let me give * my _|love to you _|Let me _ take your|hand And|
"Bb9" cczc- c2 _Bc | dGzG- G2 G2 |"Gm9" F2 D2 FG-GG- |: G4 z2 _B2 |"Eb6" c3 c _B4 | %17
w: we will walk _ in the|dim- ming light _ Oh|darl ing un der stand _|_ That|Ev 'ry thing|
"Cm9" c3 _B- B2 d2 |"Gm7" c-_B G6- | G4 z2 _B2 |"Eb6" c3 c _B4 |"Cm9" c3 _B- B2 d2 | %22
w: Ev- 'ry _ thing|ends _ _|_ That|Ev 'ry thing|Ev- 'ry _ thing|
"Gm7" c-_B G6- :|"Eb6" c3 c _B4 |"Bb6" c3 c _B4 |"Cm9" c3 _B- B2 d2 |"Gm7" c-_B G6 | z8 :| %28
w: ends _ _|Ev- 'ry- thin|Ev- 'ry- thing|Ev- 'ry- * thing|ends _ _||
"Gm7" _BBzB z B- B2 | _B2 GF- FG- G2 | FFzF- F<G- GG- | G4 z2 _B2 |"Bb9" cczc- c_B- B2 | %33
w: Meet me on your _|best be- hav- * ior _|Meet me at _ your _ worst|_ For|there will be _ no _|
 c_B-Bc- c2 B2 |"Gm9" dGzG- G>F- FG- | G8 |"Gm7" _BBzB- B2 BB | z G-GF- FG- G2 | z FDF- F2 GG- | %39
w: stone un- * turned _ Or|bub- ble left _ to _ burst|_|Let me lay _ be- side|you _ darl- * ing _|Let me be _ your man|
 G4 z _B z2 |"Bb9" _Bczc- cB-Bc | z _B-Bc- c3 B |"Gm9" d2 G>G- GA-AG- | G8 | z8 :| %45
w: _ And|let our bod- * ies _ INT|ER _ TWINE _ but|al way un der stand _ _|_||
"Eb" z2 z2 z2 G2 | c4 c-d- d2 |"F" z2 z2 z2 F2 | c2 d2 _BG- G2 |"Cm7" z2 z2 z2 G2 | %50
w: A|win dow _ _|An|o- pen tomb _ _|The|
 c3 _B-"Gm7" GF- F2 | z4 F2 G2 | _B3 G- G2 z2 |"Eb" z2 z2 z2 G2 | c4 c-d- d2 |"C7/E" z2 z2 z2 G2 | %56
w: sun crawls _ _ _|'cross your|bed room _|The|ha- lo _ _|A-|
 c2 d2 _BG- G2 |"Cm7" z2 z2 z2 G2 | c3 _B- GF- F2 |"Gm7" z2 z2 F2 G2 | c3 _B- GF B2 | %61
w: wait- ing room _ _|Your|last breaths _ _ _|Mov ing|thru you _ _ And|
"Eb6" c3 c _B4 |"Cm9" c3 _B- B2 d2 |"Gm7" c-_B G6- | G4 z2 _B2 |"Eb6" c3 c _B4 | %66
w: Ev 'ry thing|Ev- 'ry _ thing|ends _ _|_ That|Ev 'ry thing|
"Cm9" c3 _B- B2 d2 |"Gm7" c-_B G6- |"Eb6" c3 c _B4 |"Bb6" c3 c _B4 |"Cm9" c3 _B- B2 d2 | %71
w: Ev- 'ry _ thing|ends _ _|Ev- 'ry- thing|Ev- 'ry- thing|Ev- 'ry- * thing|
"Gm7" c-_B G6 |] %72
w: ends _ _|

